X: 46
T: No_51_First_Song_of_Hunci_Dance.krn
N: Derived from No_51_First_Song_of_Hunci_Dance.krn
%%abc-version 2.0
%%abcx-abcm2ps-target-version 5.9.1 (29 Sep 2008)
%%abc-creator hum2abc beta
%%abcx-conversion-date 2019/03/15 08:25:35
%%humdrum-veritas 3740322824
%%humdrum-veritas-data 1965819374
%%linebreak <none>
%%barnumbers 0
L: 1/8
M: 3/4
K: F clef=bass
[K:clef=bass][M:3/4]CA,C2C2 [I:setbarnb 2]| 
CA,C2CD- | 
DD CA,G,2 | 
G,/G,3/ G,3/G,/ G, z | 
G,/G,3/ G,/G,3/G,2 | 
C3/A,/ C3/A,/ F,/D,3/ | 
A,3/F,/ G,/F,3/ D,/C,3/ | 
F,2C,C, C,F, | 
[M:2/4]C,2C, z | 
C,/C,3/ C,C, | 
C,C, C, z :|]  
[M:2/4]F,2C,C, | 
z C, C,F, | 
C,2C, z | 
C,/C,3/ C,C, | 
C,C, C, z | 
[M:3/4]G,G,- G,G, G,F, | 
[M:2/4]C,C, C, z | 
[M:3/4]G,G,- G,G, G,F, | 
[M:2/4]C,C, C, z | 
F,/D,3/C,2 | 
[M:3/4]F,2F,D, C, z | 
[M:2/4]F,/D,3/C,2 | 
[M:3/4]F,2F,D,C,2 | 
F,2F,D, C, z | 
[M:2/4]F,D, C,F, | 
C,C, C, z |]  



